!!!!SEGMENT: pl-cz--iii-114--004_dankowski-adalbert--vesperae-d-gloria.krn
!!!cenid: 18xx:809
!!!COM: Dankowski, Adalbert
!!!COM-rismid: pe30000793
!!!CDT: ~1760-~1836
!!!CNT: Polish
!!!OPR: Vesperae D
!!!OTL: Gloria
!!!OMV: 004
!!!PDT:
!!!AGN: Sacred; Vespers
!!!SMS-siglum: PL-CZ
!!!SMS-shelfmark: III-114
!!!SMS-shelfwork: 001-004 M
!!!SMS-variant:
!!!SMS-altvar:
!!!NIFC-rismid: 300000113
!!!URL-scan: http://repozytorium.nifc.pl/skany/pl-cz-nut--iii-114
!!!ONB-nifc: UWAGA: części Vesperae: Dixit Dominus, Juravit Dominus, Judicabit, Gloria, Laudate pueri, Laetatus sum, Nisi Dominus, Lauda Jerusalem, Magnificat, Et misericordia, Gloria. Uwaga: brak partii vl 1, fl 1 i 2
!!!key: D
**kern	**fba	**kern	**dynam	**kern	**kern	**text	**kern	**text	**kern	**text	**kern	**text	**kern	**kern	**kern	**kern
*	*	*group4	*	*group4	*group3	*	*group3	*	*group3	*	*group3	*	*group2	*group2	*group1	*group1
*part11	*	*part10	*part10	*part9	*part8	*part8	*part7	*part7	*part6	*part6	*part5	*part5	*part4	*part3	*part2	*part1
*staff11	*	*staff10	*	*staff9	*staff8	*staff8	*staff7	*staff7	*staff6	*staff6	*staff5	*staff5	*staff4	*staff3	*staff2	*staff1
*I"Organo.	*	*I"Violino Secondo	*	*I"[Violino Primo]	*I"Baſso	*	*I"Tenore	*	*I"Alto	*	*I"Canto	*	*I"Cornu Secondo Ex D:	*I"Cornu Primo Ex D:	*I"[Flauto Secondo]	*I"[Flauto Primo]
*I'org	*	*I'vl 2	*	*I'[vl 1]	*I'B	*	*I'T	*	*I'A	*	*I'C	*	*I'cor 2	*I'cor 1	*I'[fl 2]	*I'[fl 1]
*Iorgan	*	*Ivioln	*	*Ivioln	*Ibass	*	*Itenor	*	*Ialto	*	*Isoprn	*	*Icor	*Icor	*Iflt	*Iflt
*ICklav	*	*ICstr	*	*ICstr	*ICvox	*	*ICvox	*	*ICvox	*	*ICvox	*	*ICbras	*ICbras	*ICww	*ICww
*IGcont	*	*	*	*	*IGcoro	*	*IGcoro	*	*IGcoro	*	*IGcoro	*	*	*	*	*
*clefF4	*	*clefG2	*	*clefG2	*clefF4	*	*clefC4	*	*clefC3	*	*clefC1	*	*clefG2	*clefG2	*clefG2	*clefG2
*	*	*	*	*	*	*	*	*	*	*	*	*	*ITrd6c10	*ITrd6c10	*	*
*k[f#c#]	*	*k[f#c#]	*	*k[f#c#]	*k[f#c#]	*	*k[f#c#]	*	*k[f#c#]	*	*k[f#c#]	*	*k[f#c#]	*k[f#c#]	*k[f#c#]	*k[f#c#]
*D:	*	*D:	*	*	*D:	*	*D:	*	*D:	*	*D:	*	*	*	*	*
*M2/2	*	*M2/2	*	*M2/2	*M2/2	*	*M2/2	*	*M2/2	*	*M2/2	*	*M2/2	*M2/2	*M2/2	*M2/2
*met(c|)	*	*met(c|)	*	*met(c|)	*met(c|)	*	*met(c|)	*	*met(c|)	*	*met(c|)	*	*met(c|)	*met(c|)	*met(c|)	*met(c|)
=1	=1	=1	=1	=1	=1	=1	=1	=1	=1	=1	=1	=1	=1	=1	=1	=1
!LO:TX:a:i:t=Solo&colon;	!	!	!	!	!	!	!	!	!	!	!LO:TX:a:i:t=adagio	!	!	!	!	!
!LO:TX:a:i:t=adagio&colon;	!	!LO:TX:a:i:t=adag&colon;	!	!	!	!	!	!	!	!	!LO:TX:t=P:problem: znaki [f# cc#]	!	!LO:TX:a:i:t=adag&colon;	!LO:TX:a:i:t=adag&colon;	!	!
!LO:TX:b:i:t=Gloria	!	!LO:TX:b:t=Gloria	!	!	!LO:TX:a:i:t=adag&colon;	!	!LO:TX:a:i:t=adag&colon;	!	!LO:TX:a:i:t=adag&colon;	!	!	!	!LO:TX:b:i:t=Gloria	!LO:TX:b:i:t=Gloria	!	!
8D\L	.	8f#/L	.	1ryy	2r	.	2r	.	2r	.	2r	.	2r	2r	1ryy	1ryy
8D\	.	8f#/	.	.	.	.	.	.	.	.	.	.	.	.	.	.
8D\	.	8f#/	.	.	.	.	.	.	.	.	.	.	.	.	.	.
8D\J	.	8d/J	.	.	.	.	.	.	.	.	.	.	.	.	.	.
4D\	.	4A/	.	.	4D\	Glo-	4A\	Glo-	8.f#\L	Glo-	8.dd\L	Glo-	8F#/L	8d\L	.	.
.	.	.	.	.	.	.	.	.	.	.	.	.	16F#/L	16d\L	.	.
.	.	.	.	.	.	.	.	.	16a\Jk	.	16ff#\Jk	.	16F#/JJ	16d\JJ	.	.
4r	.	4r	.	.	8D\	-ri-	8A\	-ri-	16a\LL	-ri-	16ff#\LL	-ri-	8F#/L	8d\L	.	.
.	.	.	.	.	.	.	.	.	16g\JJ	.	16ee\JJ	.	.	.	.	.
.	.	.	.	.	8D\	-a	8A\	-a	16f#\LL	-a	16ee\LL	-a	8F#/J	8d\J	.	.
.	.	.	.	.	.	.	.	.	16e\JJ	.	16dd\JJ	.	.	.	.	.
=2	=2	=2	=2	=2	=2	=2	=2	=2	=2	=2	=2	=2	=2	=2	=2	=2
8AA/L	.	8e/L	.	1ryy	8A\	pa-	8A\	pa-	16f#\LL	pa-	16dd\LL	pa-	8A/L	8e\L	1ryy	1ryy
.	.	.	.	.	.	.	.	.	16e\JJ	.	16cc#\JJ	.	.	.	.	.
8AA/	.	8e/	.	.	8A\	-tri	8A\	-tri	8e\	-tri	8cc#\	-tri	8A/J	8e\J	.	.
8AA/	.	8e/	.	.	4r	.	4r	.	4r	.	4r	.	4r	4r	.	.
8AA/J	.	8c#/J	.	.	.	.	.	.	.	.	.	.	.	.	.	.
4AA/	.	4c#/	.	.	4A\	glo-	4A\	glo-	8.e\L	glo-	8.cc#\L	glo-	8A/L	8e\L	.	.
.	.	.	.	.	.	.	.	.	.	.	.	.	16A/L	16e\L	.	.
.	.	.	.	.	.	.	.	.	16g\Jk	.	16ee\Jk	.	16A/JJ	16e\JJ	.	.
4r	.	4r	.	.	8A\	-ri-	8A\	-ri-	16g\LL	-ri-	16ee\LL	-ri-	8A/L	8e\L	.	.
.	.	.	.	.	.	.	.	.	16f#\JJ	.	16dd\JJ	.	.	.	.	.
.	.	.	.	.	8A\	-a	8A\	-a	16f#\LL	-a	16dd\LL	-a	8A/J	8e\J	.	.
.	.	.	.	.	.	.	.	.	16e\JJ	.	16cc#\JJ	.	.	.	.	.
=3	=3	=3	=3	=3	=3	=3	=3	=3	=3	=3	=3	=3	=3	=3	=3	=3
8D\L	.	8f#/L	.	1ryy	16D\	fi-	16A\	fi-	16f#\	fi-	16dd\	fi-	8F#/L	8d\L	1ryy	1ryy
.	.	.	.	.	16D\	-li-	16A\	-li-	16f#\	-li-	16dd\	-li-	.	.	.	.
8D\	.	8f#/	.	.	8D\	-o	8A\	-o	8f#\	-o	8dd\	-o	8F#/J	8d\J	.	.
8D\	.	8f#/	.	.	4r	.	4r	.	4r	.	4r	.	4r	4r	.	.
8D\J	.	8d/J	.	.	.	.	.	.	.	.	.	.	.	.	.	.
!	!	!	!	!	!	!	!	!	!LO:LB:g=original	!	!LO:LB:g=original	!	!	!	!	!
4D\	.	4A/	.	.	4D\	&	4d\	&	(4a\	&	(4ff#\	&	8F#/L	8d\L	.	.
.	.	.	.	.	.	.	.	.	.	.	.	.	16F#/L	16d\L	.	.
.	.	.	.	.	.	.	.	.	.	.	.	.	16F#/JJ	16d\JJ	.	.
4r	.	4r	.	.	4D\	ſpi-	4d\	ſpi-	16b\LL)	.	16gg\LL)	.	8F#/L	8d\L	.	.
.	.	.	.	.	.	.	.	.	16a\JJ	.	16ff#\JJ	.	.	.	.	.
.	.	.	.	.	.	.	.	.	16g\LL	ſpi-	16ee\LL	ſpi-	8F#/J	8d\J	.	.
.	.	.	.	.	.	.	.	.	16f#\JJ	.	16dd\JJ	.	.	.	.	.
!	!	!	!	!	!LO:LB:g=original	!	!LO:LB:g=original	!	!	!	!	!	!	!	!	!
=4	=4	=4	=4	=4	=4	=4	=4	=4	=4	=4	=4	=4	=4	=4	=4	=4
!LO:TX:a:i:t=pedal&colon;	!	!	!	!	!	!	!	!	!	!	!	!	!	!	!	!
4AA/	.	1r	.	1ryy	8.A\	-ri-	8.c#\	-ri-	8.e\	-ri-	8.cc#\	-ri-	4A/	4e\	1ryy	1ryy
.	.	.	.	.	16A\	-tu-	16c#\	-tu-	32f#\LLL	-tu-	32dd\LLL	-tu-	.	.	.	.
.	.	.	.	.	.	.	.	.	32g\JJJ	.	32ee\JJJ	.	.	.	.	.
4D\	.	.	.	.	4D\	-i	4A\	-i	4f#\	-i	4dd\	-i	4d\	4f#\	.	.
*	*	*	*	*	*2\right	*	*	*	*	*	*2\right	*	*	*	*	*
2BB/	.	.	.	.	2B\	ſan-	4f#\	ſan-	4a\	ſan-	2dd\	ſan-	4d\	4f#\	.	.
.	.	.	.	.	.	.	4e\	.	4g#X\	.	.	.	4e\	4e\	.	.
=5	=5	=5	=5	=5	=5	=5	=5	=5	=5	=5	=5	=5	=5	=5	=5	=5
8AA/L	.	8r	.	1ryy	4A\	-cto	4e\	-cto	4a\	-cto	4cc#\	-cto	4A/	4e\	1ryy	1ryy
8AA/	.	32a/LLL	.	.	.	.	.	.	.	.	.	.	.	.	.	.
.	.	32g#X/	.	.	.	.	.	.	.	.	.	.	.	.	.	.
.	.	32a/	.	.	.	.	.	.	.	.	.	.	.	.	.	.
.	.	32b/JJJ	.	.	.	.	.	.	.	.	.	.	.	.	.	.
8AA/	.	16a/LL	.	.	4r	.	4r	.	4r	.	4r	.	4r	4r	.	.
.	.	16cc#/	.	.	.	.	.	.	.	.	.	.	.	.	.	.
8AA/J	.	16a/	.	.	.	.	.	.	.	.	.	.	.	.	.	.
.	.	16cc#/JJ	.	.	.	.	.	.	.	.	.	.	.	.	.	.
4AA/	.	4a/	.	.	2r	.	2r	.	2r	.	2r	.	2r	2r	.	.
!LO:TX:b:i:t=Verte	!	!	!	!	!	!	!	!	!	!	!	!	!	!	!	!
4r	.	4r	.	.	.	.	.	.	.	.	.	.	.	.	.	.
!LO:PB:g=original	!	!LO:LB:g=original	!	!	!LO:LB:g=original	!	!LO:LB:g=original	!	!LO:LB:g=original	!	!LO:LB:g=original	!	!LO:LB:g=original	!LO:LB:g=original	!	!
=6||	=6||	=6||	=6||	=6||	=6||	=6||	=6||	=6||	=6||	=6||	=6||	=6||	=6||	=6||	=6||	=6||
*clefC1	*	*	*	*	*	*	*	*	*	*	*	*	*	*	*	*
!LO:TX:a:i:t=Capella	!	!LO:TX:a:i:t=Capella	!	!	!	!	!	!	!	!	!	!	!	!	!	!
1d\	.	1d/	.	1ryy	00r	.	00r	.	(1d\	ſi-	00r	.	00r	00r	1ryy	1ryy
=7	=7	=7	=7	=7	=7	=7	=7	=7	=7	=7	=7	=7	=7	=7	=7	=7
*	*	*	*	*	*	*	*	*	*2\right	*	*	*	*	*	*	*
2c#/	.	2c#/	.	1ryy	.	.	.	.	2c#\)	.	.	.	.	.	1ryy	1ryy
4d/	.	4d/	.	.	.	.	.	.	4d\	-cut	.	.	.	.	.	.
4e/	.	4e/	.	.	.	.	.	.	4e\	.	.	.	.	.	.	.
=8	=8	=8	=8	=8	=8	=8	=8	=8	=8	=8	=8	=8	=8	=8	=8	=8
4f#/	.	4f#/	.	1ryy	.	.	.	.	4f#\	e-	.	.	.	.	1ryy	1ryy
4e/	.	4e/	.	.	.	.	.	.	4e\	.	.	.	.	.	.	.
2d/	.	2d/	.	.	.	.	.	.	2d\	-rat	.	.	.	.	.	.
=9	=9	=9	=9	=9	=9	=9	=9	=9	=9	=9	=9	=9	=9	=9	=9	=9
4r	.	4r	.	1ryy	.	.	.	.	4r	.	.	.	.	.	1ryy	1ryy
4c#/	.	4c#/	.	.	.	.	.	.	(4c#\	in	.	.	.	.	.	.
4d/	.	4d/	.	.	.	.	.	.	4d\)	.	.	.	.	.	.	.
4e/	.	4e/	.	.	.	.	.	.	4e\	prin-	.	.	.	.	.	.
=10	=10	=10	=10	=10	=10	=10	=10	=10	=10	=10	=10	=10	=10	=10	=10	=10
4f#/	.	4f#/	.	1ryy	00r	.	00r	.	4f#\	-ci-	0r	.	00r	00r	1ryy	1ryy
4e/	.	4e/	.	.	.	.	.	.	4e\	-pi-	.	.	.	.	.	.
4d/	.	4d/	.	.	.	.	.	.	4d\	-o	.	.	.	.	.	.
4b/	.	4b/	.	.	.	.	.	.	4b\	&	.	.	.	.	.	.
=11	=11	=11	=11	=11	=11	=11	=11	=11	=11	=11	=11	=11	=11	=11	=11	=11
4g#X/	.	4g#X/	.	1ryy	.	.	.	.	4g#X\	nunc	.	.	.	.	1ryy	1ryy
4e/	.	4e/	.	.	.	.	.	.	4e\	&	.	.	.	.	.	.
[2a/	.	[2a/	.	.	.	.	.	.	[<2a\	ſem-	.	.	.	.	.	.
=12	=12	=12	=12	=12	=12	=12	=12	=12	=12	=12	=12	=12	=12	=12	=12	=12
2a/]	.	2a/]	.	1ryy	.	.	.	.	2a\]	.	1r	.	.	.	1ryy	1ryy
2g#X/	.	2g#X/	.	.	.	.	.	.	2g#X\	.	.	.	.	.	.	.
!	!	!	!	!	!	!	!	!	!LO:LB:g=original	!	!	!	!	!	!	!
=13	=13	=13	=13	=13	=13	=13	=13	=13	=13	=13	=13	=13	=13	=13	=13	=13
*^	*	*	*	*	*	*	*	*	*	*	*	*	*	*	*	*
1a/	4a\	.	4a/	.	1ryy	.	.	.	.	4a\	-per	(1a\	ſi-	.	.	1ryy	1ryy
.	4A\	.	4A/	.	.	.	.	.	.	4A/	&	.	.	.	.	.	.
.	4B\	.	4B/	.	.	.	.	.	.	4B/	.	.	.	.	.	.	.
.	4c#\	.	4c#/	.	.	.	.	.	.	4c#/	in	.	.	.	.	.	.
!LO:LB:g=original	!	!	!	!	!	!	!	!	!	!	!	!	!	!	!	!	!
=14	=14	=14	=14	=14	=14	=14	=14	=14	=14	=14	=14	=14	=14	=14	=14	=14	=14
2g#X/	4d\	.	4d/	.	1ryy	00r	.	00r	.	(4d\	ſae-	2g#X\)	.	00r	00r	1ryy	1ryy
.	8e\L	.	8e/L	.	.	.	.	.	.	8e\L)	.	.	.	.	.	.	.
.	8d\J	.	8d/J	.	.	.	.	.	.	8d\J	.	.	.	.	.	.	.
!	!	!	!LO:LB:g=original	!	!	!	!	!	!	!	!	!	!	!	!	!	!
4a/	4c#\	.	4c#/	.	.	.	.	.	.	4c#\	-cu-	4a\	-cut	.	.	.	.
4b/	4G#X/	.	4G#X/	.	.	.	.	.	.	4G#X/	-la	4b\	.	.	.	.	.
=15	=15	=15	=15	=15	=15	=15	=15	=15	=15	=15	=15	=15	=15	=15	=15	=15	=15
*	*2\right	*	*	*	*	*	*	*	*	*	*	*	*	*	*	*	*
4cc#/	2.A\	.	2.A/	.	1ryy	.	.	.	.	2.A/	ſae-	(4cc#\	e-	.	.	1ryy	1ryy
4b/	.	.	.	.	.	.	.	.	.	.	.	4b\)	.	.	.	.	.
2a/	.	.	.	.	.	.	.	.	.	.	.	2a\	-rat	.	.	.	.
.	4c#\	.	4c#/	.	.	.	.	.	.	4c#\	-cu-	.	.	.	.	.	.
=16	=16	=16	=16	=16	=16	=16	=16	=16	=16	=16	=16	=16	=16	=16	=16	=16	=16
4r	4d\	.	4d/	.	1ryy	.	.	.	.	4d\	-lo-	4r	.	.	.	1ryy	1ryy
4g#X/	8e\L	.	8e/L	.	.	.	.	.	.	8e\L	.	(4g#X\	in	.	.	.	.
.	8d\J	.	8d/J	.	.	.	.	.	.	8d\J	.	.	.	.	.	.	.
4a/	4c#\	.	4c#/	.	.	.	.	.	.	4c#\	.	4a\)	.	.	.	.	.
4b/	4G#X/	.	4G#X/	.	.	.	.	.	.	4G#X/	-rum	4b\	prin-	.	.	.	.
=17	=17	=17	=17	=17	=17	=17	=17	=17	=17	=17	=17	=17	=17	=17	=17	=17	=17
4cc#/	2.A/	.	2.A/	.	1ryy	.	.	.	.	2.A/	a-	4cc#\	-ci-	.	.	1ryy	1ryy
4b/	.	.	.	.	.	.	.	.	.	.	.	4b\	-pi-	.	.	.	.
4a/	.	.	.	.	.	.	.	.	.	.	.	4a\	-o	.	.	.	.
4ee/	4a\	.	4a/	.	.	.	.	.	.	4a\	-men	4ee\	&	.	.	.	.
!	!	!	!	!	!	!	!	!	!	!	!	!LO:LB:g=original	!	!	!	!	!
=18	=18	=18	=18	=18	=18	=18	=18	=18	=18	=18	=18	=18	=18	=18	=18	=18	=18
4cc#/	4gn\	.	4gn/	.	1ryy	0r	.	00r	.	4g\	a-	4cc#\	nunc	0r	0r	1ryy	1ryy
4a/	8a\L	.	8a/L	.	.	.	.	.	.	8a\L	.	4a\	&	.	.	.	.
.	8g\J	.	8g/J	.	.	.	.	.	.	8g\J	.	.	.	.	.	.	.
[2dd/	4f#\	.	4f#/	.	.	.	.	.	.	4f#\	.	2dd\	ſem-	.	.	.	.
.	4d\	.	4d/	.	.	.	.	.	.	4d\	.	.	.	.	.	.	.
!	!	!	!	!	!	!	!	!	!	!LO:LB:g=original	!	!	!	!	!	!	!
=19	=19	=19	=19	=19	=19	=19	=19	=19	=19	=19	=19	=19	=19	=19	=19	=19	=19
2dd/]	4g\	.	4g/	.	1ryy	.	.	.	.	4g\	.	2dd\	.	.	.	1ryy	1ryy
.	4e\	.	4e/	.	.	.	.	.	.	4e\	.	.	.	.	.	.	.
2cc#/	4a\	.	4a/	.	.	.	.	.	.	4a\	.	2cc#\	.	.	.	.	.
.	4g\	.	4g/	.	.	.	.	.	.	4g\	.	.	.	.	.	.	.
=20	=20	=20	=20	=20	=20	=20	=20	=20	=20	=20	=20	=20	=20	=20	=20	=20	=20
2dd/	2f#\	.	2.f#/	.	1ryy	(1D\	ſi-	.	.	2.f#\	-men	2dd\	-per	2r	2r	1ryy	1ryy
*clefF4	*	*	*	*	*	*	*	*	*	*	*	*	*	*2\right	*2\right	*	*
!	!	!	!	!	!	!	!	!	!	!	!	!LO:SIC:v:s=4dd\	!	!	!	!	!
2D\	2ryy	.	.	.	.	.	.	.	.	.	.	4cc#\	&	2d\	2f#\	.	.
.	.	.	4a/	.	.	.	.	.	.	4a\	a-	4ff#\	in	.	.	.	.
*v	*v	*	*	*	*	*	*	*	*	*	*	*	*	*	*	*	*
!LO:LB:g=original	!	!	!	!	!	!	!	!	!	!	!	!	!	!	!	!
=21	=21	=21	=21	=21	=21	=21	=21	=21	=21	=21	=21	=21	=21	=21	=21	=21
2C#/	6 5	4e/	.	1ryy	2C#/)	.	.	.	4e\	.	4gg\	ſae-	2A/	2e\	1ryy	1ryy
.	.	8d/L	.	.	.	.	.	.	8d\L	.	8aa\L	.	.	.	.	.
.	.	8e/J	.	.	.	.	.	.	8e\J	.	8gg\J	.	.	.	.	.
4D\	.	4f#/	.	.	(4D\	-cut	.	.	4f#\	.	4ff#\	-cu-	4d\	4f#\	.	.
4E\	6 3	4g/	.	.	4E\)	.	.	.	4g\	.	4cc#\	-la	4e\	4g\	.	.
!	!	!LO:LB:g=original	!	!	!	!	!	!	!	!	!	!	!	!	!	!
=22	=22	=22	=22	=22	=22	=22	=22	=22	=22	=22	=22	=22	=22	=22	=22	=22
4F#\	6 3	2.f#/	.	1ryy	(4F#\	e-	00r	.	2.f#\	-men	2.dd\	ſae-	1d/	1f#/	1ryy	1ryy
4E\	.	.	.	.	4E\)	.	.	.	.	.	.	.	.	.	.	.
2D\	.	.	.	.	2D\	-rat	.	.	.	.	.	.	.	.	.	.
.	.	4a/	.	.	.	.	.	.	4a\	a-	4ff#\	-cu-	.	.	.	.
=23	=23	=23	=23	=23	=23	=23	=23	=23	=23	=23	=23	=23	=23	=23	=23	=23
4r	.	4e/	.	1ryy	4r	.	.	.	4e\	.	4gg\	-lo-	2A/	2e\	1ryy	1ryy
4C#/	6 5	8d/L	.	.	(4C#/	in	.	.	8d\L	.	8aa\L	.	.	.	.	.
.	.	8e/J	.	.	.	.	.	.	8e\J	.	8gg\J	.	.	.	.	.
4D\	.	4f#/	.	.	4D\)	.	.	.	4f#\	.	4ff#\	.	4d\	4f#\	.	.
4E\	6 3	4g/	.	.	4E\	prin-	.	.	4g\	.	4cc#\	-rum	4e\	4g\	.	.
!	!	!	!	!	!	!	!	!	!	!	!LO:LB:g=original	!	!	!	!	!
=24	=24	=24	=24	=24	=24	=24	=24	=24	=24	=24	=24	=24	=24	=24	=24	=24
4F#\	6	4a/	.	1ryy	4F#\	-ci-	.	.	4a\	.	1dd\	a-	2d\	2f#\	1ryy	1ryy
4E\	.	4g/	.	.	4E\	-pi-	.	.	4g\	.	.	.	.	.	.	.
4D\	.	4f#/	.	.	4D\	-o	.	.	2f#\	.	.	.	2r	2r	.	.
4B\	.	4f#/	.	.	4B\	&	.	.	.	.	.	.	.	.	.	.
!	!	!	!	!	!LO:LB:g=original	!	!	!	!	!	!	!	!	!	!	!
=25	=25	=25	=25	=25	=25	=25	=25	=25	=25	=25	=25	=25	=25	=25	=25	=25
4G#X\	6 5	2e/	.	1ryy	4G#X\	nunc	.	.	2e\	.	4dd\	.	0r	0r	1ryy	1ryy
4E\	.	.	.	.	4E\	&	.	.	.	.	8ee\L	.	.	.	.	.
.	.	.	.	.	.	.	.	.	.	.	8dd\J	.	.	.	.	.
[2A\	.	2a/	.	.	2A\	ſem-	.	.	2a\	.	4cc#\	.	.	.	.	.
.	.	.	.	.	.	.	.	.	.	.	4a\	.	.	.	.	.
!	!	!	!	!	!	!	!	!	!LO:LB:g=original	!	!	!	!	!	!	!
=26	=26	=26	=26	=26	=26	=26	=26	=26	=26	=26	=26	=26	=26	=26	=26	=26
2A\]	4 2	1b\	.	1ryy	2A\	.	1r	.	1b\	.	4dd\	.	.	.	1ryy	1ryy
.	.	.	.	.	.	.	.	.	.	.	4b\	.	.	.	.	.
2G#X\	6 5	.	.	.	2G#X\	.	.	.	.	.	4ee\	.	.	.	.	.
.	.	.	.	.	.	.	.	.	.	.	4dd\	.	.	.	.	.
=27	=27	=27	=27	=27	=27	=27	=27	=27	=27	=27	=27	=27	=27	=27	=27	=27
4A\	.	8a/L	.	1ryy	4A\	-per	1A\	ſi-	1e\	-men	1cc#\	.	2r	2r	1ryy	1ryy
.	.	8e/	.	.	.	.	.	.	.	.	.	.	.	.	.	.
4A\	.	8e/	.	.	(4A\	&	.	.	.	.	.	.	.	.	.	.
.	.	8e/J	.	.	.	.	.	.	.	.	.	.	.	.	.	.
*	*	*tremolo	*	*	*	*	*	*	*	*	*	*	*	*	*	*
4B\	.	8e/L	.	.	4B\)	.	.	.	.	.	.	.	2A/	2e\	.	.
.	.	8e/	.	.	.	.	.	.	.	.	.	.	.	.	.	.
4c#\	6	8e/	.	.	4c#\	in	.	.	.	.	.	.	.	.	.	.
.	.	8e/J	.	.	.	.	.	.	.	.	.	.	.	.	.	.
=28	=28	=28	=28	=28	=28	=28	=28	=28	=28	=28	=28	=28	=28	=28	=28	=28
4d\	4#r_ 2_	8e/L	.	1ryy	4d\	ſae-	2G#X/	.	1e\	a-	4b\	.	1e/	1e/	1ryy	1ryy
.	.	8e/	.	.	.	.	.	.	.	.	.	.	.	.	.	.
8e\L	.	8e/	.	.	(8e\L	.	.	.	.	.	8a\L	.	.	.	.	.
8d\J	x x	8e/J	.	.	8d\J)	.	.	.	.	.	8b\J	.	.	.	.	.
4c#\	6	8e/L	.	.	4c#\	-cu-	4A\	-cut	.	.	4cc#\	.	.	.	.	.
.	.	8e/	.	.	.	.	.	.	.	.	.	.	.	.	.	.
4G#X\	6 5	8e/	.	.	4G#X\	-la	4B\	.	.	.	4dd\	.	.	.	.	.
.	.	8e/J	.	.	.	.	.	.	.	.	.	.	.	.	.	.
!LO:LB:g=original	!	!	!	!	!	!	!	!	!	!	!	!	!	!	!	!
=29	=29	=29	=29	=29	=29	=29	=29	=29	=29	=29	=29	=29	=29	=29	=29	=29
2.A\	.	8e/L	.	1ryy	2.A\	ſae-	4c#\	e-	1e\	.	2.cc#\	-men	1A/	1e/	1ryy	1ryy
.	.	8e/	.	.	.	.	.	.	.	.	.	.	.	.	.	.
.	.	8e/	.	.	.	.	4B\	.	.	.	.	.	.	.	.	.
.	.	8e/J	.	.	.	.	.	.	.	.	.	.	.	.	.	.
*	*	*	*	*	*	*	*2\right	*	*	*	*	*	*	*	*	*
.	.	8e/L	.	.	.	.	2A\	-rat	.	.	.	.	.	.	.	.
.	.	8e/	.	.	.	.	.	.	.	.	.	.	.	.	.	.
4c#\	6	8e/	.	.	4c#\	-cu-	.	.	.	.	4a\	a-	.	.	.	.
.	.	8e/J	.	.	.	.	.	.	.	.	.	.	.	.	.	.
=30	=30	=30	=30	=30	=30	=30	=30	=30	=30	=30	=30	=30	=30	=30	=30	=30
4d\	4#r_ 2_	8e/L	.	1ryy	4d\	-lo-	4r	.	1e\	.	4b\	.	1e/	1e/	1ryy	1ryy
.	.	8e/	.	.	.	.	.	.	.	.	.	.	.	.	.	.
8e\L	.	8e/	.	.	8e\L	.	(4G#X/	in	.	.	8a\L	.	.	.	.	.
8d\J	x x	8e/J	.	.	8d\J	.	.	.	.	.	8b\J	.	.	.	.	.
4c#\	6	8e/L	.	.	4c#\	.	4A\)	.	.	.	4cc#\	.	.	.	.	.
.	.	8e/	.	.	.	.	.	.	.	.	.	.	.	.	.	.
4G#X\	6 5	8e/	.	.	4G#X\	-rum	4B\	prin-	.	.	4dd\	.	.	.	.	.
.	.	8e/J	.	.	.	.	.	.	.	.	.	.	.	.	.	.
*	*	*Xtremolo	*	*	*	*	*	*	*	*	*	*	*	*	*	*
!	!	!LO:LB:g=original	!	!	!LO:LB:g=original	!	!	!	!	!	!LO:LB:g=original	!	!	!	!	!
=31	=31	=31	=31	=31	=31	=31	=31	=31	=31	=31	=31	=31	=31	=31	=31	=31
2A\	3	8e/L	.	1ryy	1A\	a-	4c#\	-ci-	1e\	.	2.cc#\	-men	1A/	1e/	1ryy	1ryy
.	.	8e/	.	.	.	.	.	.	.	.	.	.	.	.	.	.
.	.	8e/	.	.	.	.	4B\	-pi-	.	.	.	.	.	.	.	.
.	.	8e/J	.	.	.	.	.	.	.	.	.	.	.	.	.	.
*	*	*tremolo	*	*	*	*	*	*	*	*	*	*	*	*	*	*
4AA/	.	8e/L	.	.	.	.	4A\	-o	.	.	.	.	.	.	.	.
.	.	8e/	.	.	.	.	.	.	.	.	.	.	.	.	.	.
!LO:SIC:v:s=4A	!	!	!	!	!	!	!	!	!	!	!	!	!	!	!	!
4G\	.	8e/	.	.	.	.	4e\	&	.	.	4a\	a-	.	.	.	.
.	.	8e/J	.	.	.	.	.	.	.	.	.	.	.	.	.	.
*	*	*Xtremolo	*	*	*	*	*	*	*	*	*	*	*	*	*	*
!	!	!	!	!	!	!	!LO:LB:g=original	!	!	!	!	!	!	!	!	!
=32	=32	=32	=32	=32	=32	=32	=32	=32	=32	=32	=32	=32	=32	=32	=32	=32
(4Gn\	.	2a/	.	1ryy	4Gn\	.	2c#\	nunc	1a\	.	2ee\	.	2A/	2e\	1ryy	1ryy
8A\L	.	.	.	.	8A\L	.	.	.	.	.	.	.	.	.	.	.
8G\J)	.	.	.	.	8G\J	.	.	.	.	.	.	.	.	.	.	.
4F#\	6	2a/	.	.	4F#\	.	2d\	&	.	.	2ff#\	.	2d\	2f#\	.	.
4D\	.	.	.	.	4D\	.	.	.	.	.	.	.	.	.	.	.
!	!	!	!	!	!	!	!	!	!	!	!	!	!LO:LB:g=original	!LO:LB:g=original	!	!
=33	=33	=33	=33	=33	=33	=33	=33	=33	=33	=33	=33	=33	=33	=33	=33	=33
4G\	6 5	2b/	.	1ryy	4G\	.	2d\	ſem-	2b\	.	1ee\	.	2d\	1e/	1ryy	1ryy
4E\	.	.	.	.	4E\	.	.	.	.	.	.	.	.	.	.	.
4A\	3_	2a/	.	.	4A\	.	2c#\	.	2a\	.	.	.	2A/	.	.	.
4G\	.	.	.	.	4G\	.	.	.	.	.	.	.	.	.	.	.
=34	=34	=34	=34	=34	=34	=34	=34	=34	=34	=34	=34	=34	=34	=34	=34	=34
2.F#\	6	2.d/	.	1ryy	2.F#\	-men	4d\	-per	2f#\	-men	2dd\	-men	1F#/	1d/	1ryy	1ryy
.	.	.	.	.	.	.	(4D/	&	.	.	.	.	.	.	.	.
.	.	.	.	.	.	.	4E/)	.	2d\	a-	2a\	a-	.	.	.	.
4D\	.	4d/	.	.	4D\	a-	4F#/	in	.	.	.	.	.	.	.	.
=35	=35	=35	=35	=35	=35	=35	=35	=35	=35	=35	=35	=35	=35	=35	=35	=35
4E\	6_ 3_	2c#/	.	1ryy	4E\	.	4G/	ſae-	2c#\	.	1a\	.	2A/	2e\	1ryy	1ryy
8D\L	.	.	.	.	8D\L	.	8A/L	.	.	.	.	.	.	.	.	.
8E\J	x x	.	.	.	8E\J	.	8G/J	.	.	.	.	.	.	.	.	.
4F#\	6	4d/	.	.	4F#\	.	4F#/	-cu-	4d\	.	.	.	4d\	4f#\	.	.
4G\	4 2	4e/	.	.	4G\	.	4C#/	-la	4e\	.	.	.	4e\	4g\	.	.
=36	=36	=36	=36	=36	=36	=36	=36	=36	=36	=36	=36	=36	=36	=36	=36	=36
2.F#\	6	4f#/	.	1ryy	2.F#\	-men	2.D/	ſae-	4f#\	.	1a\	.	1d/	1f#/	1ryy	1ryy
.	.	4e/	.	.	.	.	.	.	4e\	.	.	.	.	.	.	.
.	.	2d/	.	.	.	.	.	.	2d\	-men	.	.	.	.	.	.
4D\	.	.	.	.	4D\	a-	4F#/	-cu-	.	.	.	.	.	.	.	.
!LO:LB:g=original	!	!	!	!	!	!	!	!	!LO:LB:g=original	!	!	!	!	!	!	!
=37	=37	=37	=37	=37	=37	=37	=37	=37	=37	=37	=37	=37	=37	=37	=37	=37
4E\	6 3	4r	.	1ryy	4E\	.	4G/	-lo-	4r	.	1a\	.	2A/	2e\	1ryy	1ryy
8D\L	.	4c#/	.	.	8D\L	.	8A/L	.	4c#\	a-	.	.	.	.	.	.
8E\J	.	.	.	.	8E\J	.	8G/J	.	.	.	.	.	.	.	.	.
4F#\	6	4d/	.	.	4F#\	.	4F#/	.	4d\	.	.	.	4d\	4f#\	.	.
4G\	4 2	4e/	.	.	4G\	.	4C#/	-rum	4e\	.	.	.	4e\	4g\	.	.
!	!	!	!	!	!LO:LB:g=original	!	!	!	!	!	!	!	!	!	!	!
=38	=38	=38	=38	=38	=38	=38	=38	=38	=38	=38	=38	=38	=38	=38	=38	=38
2.F#\	6	4f#/	.	1ryy	2.F#\	.	2.D/	a-	4f#\	.	1a\	.	1d/	1f#/	1ryy	1ryy
.	.	4e/	.	.	.	.	.	.	4e\	.	.	.	.	.	.	.
.	.	2d/	.	.	.	.	.	.	2d\	.	.	.	.	.	.	.
4D\	.	.	.	.	4D\	.	4F#/	.	.	.	.	.	.	.	.	.
!	!	!LO:PB:g=original	!	!	!	!	!LO:LB:g=original	!	!	!	!	!	!	!	!	!
=39	=39	=39	=39	=39	=39	=39	=39	=39	=39	=39	=39	=39	=39	=39	=39	=39
4C#/	6 3	2c#/	.	1ryy	4C#/	.	2A\	.	2c#\	-men	4a\	.	2A/	2e\	1ryy	1ryy
4AA/	.	.	.	.	4AA/	.	.	.	.	.	8cc#\L	.	.	.	.	.
.	.	.	.	.	.	.	.	.	.	.	8ee\J	.	.	.	.	.
[2D/	.	2a/	.	.	[2D/	.	2d\	.	2a\	a-	2ff#\	.	2d\	2f#\	.	.
=40	=40	=40	=40	=40	=40	=40	=40	=40	=40	=40	=40	=40	=40	=40	=40	=40
2D/]	4 2	2g#X/	.	1ryy	2D/]	.	2B\	.	2g#X\	.	1ee\	.	2e\	2g#X\	1ryy	1ryy
2C#/	6	2a/	.	.	2C#/	.	2c#\	.	2a\	.	.	.	2A/	2a\	.	.
=41	=41	=41	=41	=41	=41	=41	=41	=41	=41	=41	=41	=41	=41	=41	=41	=41
1BB/	7	2a/	.	1ryy	1BB/	.	2f#\	.	2a\	.	1dd\	.	2f#\	2a\	1ryy	1ryy
.	6|	2g#X/	.	.	.	.	2e\	.	2g#X\	.	.	.	2e\	2g#X\	.	.
!	!	!	!	!	!	!	!	!	!	!	!LO:LB:g=original	!	!	!	!	!
=42	=42	=42	=42	=42	=42	=42	=42	=42	=42	=42	=42	=42	=42	=42	=42	=42
2AA/	.	4a/	.	1ryy	2AA/	-men	2e\	-men	2a\	-men	2cc#\	-men	2A/	2a\	1ryy	1ryy
!	!	!LO:TX:a:i:t=Solo&colon;	!	!	!	!	!	!	!	!	!	!	!	!	!	!
.	.	4A/	.	.	.	.	.	.	.	.	.	.	.	.	.	.
2r	.	4B/	.	.	2r	.	2r	.	2r	.	2r	.	2r	2r	.	.
.	.	4c#/	.	.	.	.	.	.	.	.	.	.	.	.	.	.
=43	=43	=43	=43	=43	=43	=43	=43	=43	=43	=43	=43	=43	=43	=43	=43	=43
00r	.	4d/	.	1ryy	00r	.	00r	.	00r	.	00r	.	00r	00r	1ryy	1ryy
.	.	8e/L	.	.	.	.	.	.	.	.	.	.	.	.	.	.
.	.	8d/J	.	.	.	.	.	.	.	.	.	.	.	.	.	.
.	.	4c#/	.	.	.	.	.	.	.	.	.	.	.	.	.	.
.	.	4G#X/	.	.	.	.	.	.	.	.	.	.	.	.	.	.
=44	=44	=44	=44	=44	=44	=44	=44	=44	=44	=44	=44	=44	=44	=44	=44	=44
.	.	2.A/	.	1ryy	.	.	.	.	.	.	.	.	.	.	1ryy	1ryy
.	.	4c#/	.	.	.	.	.	.	.	.	.	.	.	.	.	.
=45	=45	=45	=45	=45	=45	=45	=45	=45	=45	=45	=45	=45	=45	=45	=45	=45
.	.	4d/	.	1ryy	.	.	.	.	.	.	.	.	.	.	1ryy	1ryy
.	.	8e/L	.	.	.	.	.	.	.	.	.	.	.	.	.	.
.	.	8d/J	.	.	.	.	.	.	.	.	.	.	.	.	.	.
.	.	4c#/	.	.	.	.	.	.	.	.	.	.	.	.	.	.
.	.	4G#X/	.	.	.	.	.	.	.	.	.	.	.	.	.	.
=46	=46	=46	=46	=46	=46	=46	=46	=46	=46	=46	=46	=46	=46	=46	=46	=46
.	.	2.A/	.	1ryy	.	.	.	.	.	.	.	.	.	.	1ryy	1ryy
.	.	4a/	.	.	.	.	.	.	.	.	.	.	.	.	.	.
!	!	!LO:LB:g=original	!	!	!	!	!	!	!	!	!	!	!	!	!	!
=47	=47	=47	=47	=47	=47	=47	=47	=47	=47	=47	=47	=47	=47	=47	=47	=47
0r	.	4gn/	.	1ryy	0r	.	0r	.	0r	.	0r	.	0r	0r	1ryy	1ryy
.	.	8a/L	.	.	.	.	.	.	.	.	.	.	.	.	.	.
.	.	8g/J	.	.	.	.	.	.	.	.	.	.	.	.	.	.
.	.	4f#/	.	.	.	.	.	.	.	.	.	.	.	.	.	.
.	.	4d/	.	.	.	.	.	.	.	.	.	.	.	.	.	.
=48	=48	=48	=48	=48	=48	=48	=48	=48	=48	=48	=48	=48	=48	=48	=48	=48
!	!	!	!	!	!	!	!	!	!	!	!	!	!LO:TX:b:i:t=Verte	!LO:TX:b:i:t=Verte	!	!
.	.	4g/	.	1ryy	.	.	.	.	.	.	.	.	.	.	1ryy	1ryy
.	.	4e/	.	.	.	.	.	.	.	.	.	.	.	.	.	.
.	.	4a/	.	.	.	.	.	.	.	.	.	.	.	.	.	.
.	.	4g/	.	.	.	.	.	.	.	.	.	.	.	.	.	.
!	!	!	!	!	!	!	!	!	!	!	!	!	!LO:PB:g=original	!LO:PB:g=original	!	!
=49	=49	=49	=49	=49	=49	=49	=49	=49	=49	=49	=49	=49	=49	=49	=49	=49
!	!	!	!LO:DY:a:t=f&colon;	!	!	!	!	!	!	!	!	!	!	!	!	!
1D\	.	2.f#/	f	1ryy	1D\	ſi-	2A\	ſi-	2.f#\	ſi-	2dd\	ſi-	1d/	1f#/	1ryy	1ryy
.	.	.	.	.	.	.	2A\	-cut	.	.	4ee\	-cut	.	.	.	.
.	.	4d/	.	.	.	.	.	.	4d\	-cut	4ff#\	.	.	.	.	.
!	!	!	!	!	!	!	!	!	!LO:LB:g=original	!	!	!	!	!	!	!
=50	=50	=50	=50	=50	=50	=50	=50	=50	=50	=50	=50	=50	=50	=50	=50	=50
2C#/	6 5	4e/	.	1ryy	2C#/	.	2A\	e-	(4e\	e-	4gg\	e-	2A/	2e\	1ryy	1ryy
.	.	8d/L	.	.	.	.	.	.	8d\L	.	8aa\L	-rat	.	.	.	.
.	.	8e/J	.	.	.	.	.	.	8e\J	.	8gg\J	.	.	.	.	.
4D\	.	4f#/	.	.	4D\	-cut	2A\	-rat	4f#\)	.	4ff#\	in	4d\	4f#\	.	.
4E\	6 3	4g/	.	.	4E\	.	.	.	4g\	-rat	4cc#\	prin-	4e\	4g\	.	.
!LO:LB:g=original	!	!	!	!	!	!	!	!	!	!	!	!	!	!	!	!
=51	=51	=51	=51	=51	=51	=51	=51	=51	=51	=51	=51	=51	=51	=51	=51	=51
4F#\	6 3	2.f#/	.	1ryy	(4F#\	e-	2A\	in	2.f#\	in	2.dd\	-ci-	1d/	1f#/	1ryy	1ryy
4E\	.	.	.	.	4E\)	.	.	.	.	.	.	.	.	.	.	.
2D\	.	.	.	.	2D\	-rat	2A\	prin-	.	.	.	.	.	.	.	.
.	.	4d/	.	.	.	.	.	.	4d\	prin-	4ff#\	-pi-	.	.	.	.
!	!	!	!	!	!LO:LB:g=original	!	!LO:LB:g=original	!	!	!	!	!	!	!	!	!
=52	=52	=52	=52	=52	=52	=52	=52	=52	=52	=52	=52	=52	=52	=52	=52	=52
4r	.	4e/	.	1ryy	4r	.	2A\	-ci-	4e\	-ci-	4gg\	-o	2A/	2e\	1ryy	1ryy
4C#/	6 5	8d/L	.	.	(4C#/	in	.	.	8d\L	.	8aa\L	&	.	.	.	.
.	.	8e/J	.	.	.	.	.	.	8e\J	.	8gg\J	.	.	.	.	.
4D\	.	4f#/	.	.	4D\)	.	2A\	-pi-	4f#\	.	4ff#\	nunc	4d\	4f#\	.	.
4E\	6 3	4g/	.	.	4E\	prin-	.	.	4g\	-pi-	4cc#\	&	4e\	4g\	.	.
=53	=53	=53	=53	=53	=53	=53	=53	=53	=53	=53	=53	=53	=53	=53	=53	=53
4F#\	6	1f#/	.	1ryy	4F#\	-ci-	2.A\	-o	1f#\	-o	[2dd\	ſem-	2d\	2f#\	1ryy	1ryy
4E\	.	.	.	.	4E\	-pi-	.	.	.	.	.	.	.	.	.	.
4D\	.	.	.	.	4D\	-o	.	.	.	.	2dd\]	.	2r	2r	.	.
4B\	.	.	.	.	4B\	&	4B\	&	.	.	.	.	.	.	.	.
=54	=54	=54	=54	=54	=54	=54	=54	=54	=54	=54	=54	=54	=54	=54	=54	=54
4G#X\	6 5	2e/	.	1ryy	4G#X\	nunc	2e\	nunc	2e\	nunc	4dd\	.	0r	0r	1ryy	1ryy
4E\	.	.	.	.	4E\	&	.	.	.	.	8ee\L	.	.	.	.	.
.	.	.	.	.	.	.	.	.	.	.	8dd\J	.	.	.	.	.
!	!	!	!	!	!	!	!	!	!	!	!LO:LB:g=original	!	!	!	!	!
[<2A\	.	2a/	.	.	2A\	ſem-	2e\	&	2a\	&	4cc#\	.	.	.	.	.
.	.	.	.	.	.	.	.	.	.	.	4a\	.	.	.	.	.
!	!	!LO:LB:g=original	!	!	!	!	!	!	!	!	!	!	!	!	!	!
=55	=55	=55	=55	=55	=55	=55	=55	=55	=55	=55	=55	=55	=55	=55	=55	=55
2A\]	4 2	1b\	.	1ryy	2A\	.	2f#\	ſem-	1b\	ſem-	4dd\	.	.	.	1ryy	1ryy
.	.	.	.	.	.	.	.	.	.	.	4b\	.	.	.	.	.
2G#X\	6 5	.	.	.	2G#X\	.	2e\	.	.	.	4ee\	.	.	.	.	.
.	.	.	.	.	.	.	.	.	.	.	4dd\	.	.	.	.	.
=56	=56	=56	=56	=56	=56	=56	=56	=56	=56	=56	=56	=56	=56	=56	=56	=56
4A\	3_	2a/	.	1ryy	2A\	-per	2e\	-per	2a\	-per	2cc#\	-per	2r	2r	1ryy	1ryy
4AA/	.	.	.	.	.	.	.	.	.	.	.	.	.	.	.	.
4A\	.	2e/	.	.	4A\	&	4A\	&	4e\	&	4cc#\	&	2A/	2e\	.	.
4Gn\	.	.	.	.	4Gn\	in	4A\	in	4e\	in	4cc#\	in	.	.	.	.
=57	=57	=57	=57	=57	=57	=57	=57	=57	=57	=57	=57	=57	=57	=57	=57	=57
4F#\	x	2f#/	.	1ryy	4F#\	ſae-	2A\	ſae-	2f#\	ſae-	2dd\	ſae-	1d/	1f#/	1ryy	1ryy
4A\	.	.	.	.	4A\	-cu-	.	.	.	.	.	.	.	.	.	.
[<2d\	.	2a/	.	.	2d\	-la	4d\	-cu-	4a\	-cu-	4ff#\	-cu-	.	.	.	.
.	.	.	.	.	.	.	4d\	-la	4a\	-la	4ff#\	-la	.	.	.	.
!	!	!	!	!	!	!	!	!	!LO:LB:g=original	!	!	!	!	!	!	!
=58	=58	=58	=58	=58	=58	=58	=58	=58	=58	=58	=58	=58	=58	=58	=58	=58
4d\]	4_ 2_	1gn/	.	1ryy	4d\	ſae-	2B\	ſae-	2g\	ſae-	2ee\	ſae-	2d\	1e/	1ryy	1ryy
8c#\L	.	.	.	.	8c#\L	.	.	.	.	.	.	.	.	.	.	.
8B\J	x x	.	.	.	8B\J	.	.	.	.	.	.	.	.	.	.	.
!LO:LB:g=original	!	!	!	!	!	!	!	!	!	!	!	!	!	!	!	!
4c#\	6	.	.	.	4c#\	.	2A\	-cu-	2g\	-cu-	2ee\	-cu-	2A/	.	.	.
4A\	.	.	.	.	4A\	-cu-	.	.	.	.	.	.	.	.	.	.
!	!	!	!	!	!LO:LB:g=original	!	!	!	!	!	!	!	!	!	!	!
=59	=59	=59	=59	=59	=59	=59	=59	=59	=59	=59	=59	=59	=59	=59	=59	=59
4d\	.	1f#/	.	1ryy	4d\	-lo-	2A\	-lo-	2f#\	-lo-	2dd\	-lo-	2F#/	2d\	1ryy	1ryy
4A\	.	.	.	.	4A\	.	.	.	.	.	.	.	.	.	.	.
4F#\	.	.	.	.	4F#\	-rum	2A\	-rum	2f#\	-rum	2dd\	-rum	2d\	2f#\	.	.
4D\	.	.	.	.	4D\	.	.	.	.	.	.	.	.	.	.	.
=60	=60	=60	=60	=60	=60	=60	=60	=60	=60	=60	=60	=60	=60	=60	=60	=60
4G\	6 5	1e/	.	1ryy	4G\	a-	2B\	a-	1e\	a-	2dd\	a-	2d\	1e/	1ryy	1ryy
4E\	.	.	.	.	4E\	.	.	.	.	.	.	.	.	.	.	.
4A\	3_	.	.	.	4A\	.	2A\	.	.	.	2cc#\	.	2A/	.	.	.
4G\	.	.	.	.	4G\	.	.	.	.	.	.	.	.	.	.	.
!	!	!	!	!	!	!	!	!	!	!	!	!	!LO:LB:g=original	!	!	!
=61	=61	=61	=61	=61	=61	=61	=61	=61	=61	=61	=61	=61	=61	=61	=61	=61
2F#\	6	2.f#/	.	1ryy	2F#\	-men	1A\	-men	2.f#\	-men	2dd\	-men	1F#/	1d/	1ryy	1ryy
2D\	.	.	.	.	2D\	a-	.	.	.	.	4ee\	a-	.	.	.	.
.	.	4d/	.	.	.	.	.	.	4d\	a-	4ff#\	.	.	.	.	.
!	!	!	!	!	!	!	!	!	!	!	!LO:LB:g=original	!	!	!	!	!
=62	=62	=62	=62	=62	=62	=62	=62	=62	=62	=62	=62	=62	=62	=62	=62	=62
2C#\	6 5	4e/	.	1ryy	2C#/	.	1A\	a-	4e\	.	4gg\	.	2A/	2e\	1ryy	1ryy
.	.	8d/L	.	.	.	.	.	.	8d\L	.	8aa\L	.	.	.	.	.
.	.	8e/J	.	.	.	.	.	.	8e\J	.	8gg\J	.	.	.	.	.
4D\	.	4f#/	.	.	4D\	.	.	.	4f#\	.	4ff#\	.	4d\	4f#\	.	.
4E\	6	4g/	.	.	4E\	.	.	.	4g\	.	4cc#\	.	4e\	4g\	.	.
!	!	!	!	!	!	!	!	!	!	!	!	!	!	!LO:LB:g=original	!	!
=63	=63	=63	=63	=63	=63	=63	=63	=63	=63	=63	=63	=63	=63	=63	=63	=63
4F#\	6 3	2.f#/	.	1ryy	4F#\	.	1A\	.	2.f#\	.	2.dd\	-men	4f#\	4a\	1ryy	1ryy
4E\	.	.	.	.	4E\	.	.	.	.	.	.	.	4e\	4g\	.	.
2D\	.	.	.	.	2D\	-men	.	.	.	.	.	.	2d\	2f#\	.	.
.	.	4d/	.	.	.	.	.	.	4d\	.	4ff#\	a-	.	.	.	.
=64	=64	=64	=64	=64	=64	=64	=64	=64	=64	=64	=64	=64	=64	=64	=64	=64
4r	.	4e/	.	1ryy	4r	.	1A\	.	4e\	.	4gg\	.	2A/	2e\	1ryy	1ryy
4C#\	6 5	8d/L	.	.	4C#/	a-	.	.	8d\L	.	8aa\L	.	.	.	.	.
.	.	8e/J	.	.	.	.	.	.	8e\J	.	8gg\J	.	.	.	.	.
4D\	.	4f#/	.	.	4D\	.	.	.	4f#\	.	4ff#\	.	4d\	4f#\	.	.
4E\	6 3	4g/	.	.	4E\	.	.	.	4g\	.	4cc#\	.	4e\	4g\	.	.
!	!	!LO:LB:g=original	!	!	!	!	!	!	!LO:LB:g=original	!	!	!	!	!	!	!
=65	=65	=65	=65	=65	=65	=65	=65	=65	=65	=65	=65	=65	=65	=65	=65	=65
4F#\	6	2.f#/	.	1ryy	4F#\	.	2.A\	.	2.f#\	.	2.dd\	-men	4f#\	4a\	1ryy	1ryy
4E\	.	.	.	.	4E\	.	.	.	.	.	.	.	4e\	4g\	.	.
4D\	.	.	.	.	4D\	.	.	.	.	.	.	.	2d\	2f#\	.	.
!	!	!	!	!	!	!	!LO:SIC:v:s=4d\	!	!	!	!	!	!	!	!	!
4d\	.	4a/	.	.	4d\	.	4c#\	.	4a\	.	4ff#\	a-	.	.	.	.
!LO:LB:g=original	!	!	!	!	!LO:LB:g=original	!	!	!	!	!	!	!	!	!	!	!
=66	=66	=66	=66	=66	=66	=66	=66	=66	=66	=66	=66	=66	=66	=66	=66	=66
4c#\	6_ 5_	1a/	.	1ryy	4c#\	.	1e\	.	1a\	.	1gg\	.	1A/	1e/	1ryy	1ryy
4e\	.	.	.	.	4e\	.	.	.	.	.	.	.	.	.	.	.
4A\	x x	.	.	.	4A\	.	.	.	.	.	.	.	.	.	.	.
4c#\	.	.	.	.	4c#\	.	.	.	.	.	.	.	.	.	.	.
=67	=67	=67	=67	=67	=67	=67	=67	=67	=67	=67	=67	=67	=67	=67	=67	=67
4d\	.	2a/	.	1ryy	4d\	-men	2d\	-men	2a\	-men	2ff#\	.	2F#/	2d\	1ryy	1ryy
4D\	.	.	.	.	4D\	a-	.	.	.	.	.	.	.	.	.	.
4E\	.	2f#/	.	.	4E\	.	2A\	a-	2f#\	a-	2dd\	.	2d\	2f#\	.	.
4F#\	6	.	.	.	4F#\	.	.	.	.	.	.	.	.	.	.	.
=68	=68	=68	=68	=68	=68	=68	=68	=68	=68	=68	=68	=68	=68	=68	=68	=68
4G\	6 5	1e/	.	1ryy	4G\	.	2B\	.	1e\	.	2dd\	.	2d\	1e/	1ryy	1ryy
4E\	.	.	.	.	4E\	.	.	.	.	.	.	.	.	.	.	.
4A\	3_	.	.	.	4A\	.	2A\	.	.	.	2cc#\	.	2A/	.	.	.
4G\	.	.	.	.	4G\	.	.	.	.	.	.	.	.	.	.	.
=69	=69	=69	=69	=69	=69	=69	=69	=69	=69	=69	=69	=69	=69	=69	=69	=69
4F#\	x	2.f#/	.	1ryy	4F#\	.	2A\	-men	2.f#\	.	2dd\	-men	2F#/	2d\	1ryy	1ryy
4D\	.	.	.	.	4D\	.	.	.	.	.	.	.	.	.	.	.
[<2d\	.	.	.	.	2d\	.	2d\	a-	.	.	2ff#\	a-	2d\	2f#\	.	.
.	.	4a/	.	.	.	.	.	.	4a\	.	.	.	.	.	.	.
!	!	!	!	!	!	!	!LO:LB:g=original	!	!	!	!LO:LB:g=original	!	!	!	!	!
=70	=70	=70	=70	=70	=70	=70	=70	=70	=70	=70	=70	=70	=70	=70	=70	=70
2d\]	4 2	4g/	.	1ryy	2d\	.	2B\	.	4g\	.	1ee\	.	2d\	1e/	1ryy	1ryy
.	.	4e/	.	.	.	.	.	.	4e\	.	.	.	.	.	.	.
2c#\	6 5	4a/	.	.	2c#\	.	2A\	.	4a\	.	.	.	2A/	.	.	.
.	.	4g/	.	.	.	.	.	.	4g\	.	.	.	.	.	.	.
!	!	!	!	!	!	!	!	!	!	!	!	!	!LO:LB:g=original	!	!	!
=71	=71	=71	=71	=71	=71	=71	=71	=71	=71	=71	=71	=71	=71	=71	=71	=71
4d\	.	2f#/	.	1ryy	4d\	-men	2.A\	-men	2f#\	-men	2dd\	-men	1F#/	1d/	1ryy	1ryy
4D\	.	.	.	.	4D\	a-	.	.	.	.	.	.	.	.	.	.
4E\	.	2d/	.	.	4E\	.	.	.	2d\	a-	2a\	a-	.	.	.	.
4F#\	6	.	.	.	4F#\	.	4d\	a-	.	.	.	.	.	.	.	.
=72	=72	=72	=72	=72	=72	=72	=72	=72	=72	=72	=72	=72	=72	=72	=72	=72
4G\	4_ 2_	2c#/	.	1ryy	4G\	.	4e\	.	2c#\	.	1a\	.	2A/	2e\	1ryy	1ryy
8A\L	.	.	.	.	8A\L	.	8d\L	.	.	.	.	.	.	.	.	.
8G\J	x x	.	.	.	8G\J	.	8e\J	.	.	.	.	.	.	.	.	.
4F#\	6	4d/	.	.	4F#\	.	4f#\	.	4d\	.	.	.	4d\	4f#\	.	.
4C#/	6 5	4e/	.	.	4C#/	.	4g\	.	4e\	.	.	.	4e\	4g\	.	.
=73	=73	=73	=73	=73	=73	=73	=73	=73	=73	=73	=73	=73	=73	=73	=73	=73
2.D\	.	4f#/	.	1ryy	2.D\	-men	2.f#\	.	4f#\	.	1a\	.	1d/	1f#/	1ryy	1ryy
.	.	4e/	.	.	.	.	.	.	4e\	.	.	.	.	.	.	.
.	.	2d/	.	.	.	.	.	.	2d\	-men	.	.	.	.	.	.
4F#\	6	.	.	.	4F#\	a-	4d\	.	.	.	.	.	.	.	.	.
!LO:LB:g=original	!	!	!	!	!	!	!	!	!LO:LB:g=original	!	!	!	!	!LO:LB:g=original	!	!
=74	=74	=74	=74	=74	=74	=74	=74	=74	=74	=74	=74	=74	=74	=74	=74	=74
4G\	4_ 2_	4r	.	1ryy	4G\	.	4e\	.	4r	.	1a\	.	2A/	2e\	1ryy	1ryy
8A\L	.	4c#/	.	.	8A\L	.	8d\L	.	4c#\	a-	.	.	.	.	.	.
8G\J	x x	.	.	.	8G\J	.	8e\J	.	.	.	.	.	.	.	.	.
!	!	!LO:LB:g=original	!	!	!	!	!	!	!	!	!	!	!	!	!	!
4F#\	6	4d/	.	.	4F#\	.	4f#\	.	4d\	.	.	.	4d\	4f#\	.	.
4C#/	6 5	4e/	.	.	4C#/	.	4g\	.	4e\	.	.	.	4e\	4g\	.	.
=75	=75	=75	=75	=75	=75	=75	=75	=75	=75	=75	=75	=75	=75	=75	=75	=75
2.D\	.	4f#/	.	1ryy	2.D\	-men	2.f#\	.	4f#\	.	1a\	.	1d/	1f#/	1ryy	1ryy
.	.	4e/	.	.	.	.	.	.	4e\	.	.	.	.	.	.	.
.	.	4d/	.	.	.	.	.	.	4d\	.	.	.	.	.	.	.
!	!	!	!	!	!	!	!	!	!LO:SIC:v:s=4a\	!	!	!	!	!	!	!
4F#\	6	4a/	.	.	4F#\	a-	4d\	.	4b\	.	.	.	.	.	.	.
=76	=76	=76	=76	=76	=76	=76	=76	=76	=76	=76	=76	=76	=76	=76	=76	=76
2G\	6	2g/	.	1ryy	2G\	.	1B\	.	2g\	.	4b\	.	2.e\	2.g\	1ryy	1ryy
.	.	.	.	.	.	.	.	.	.	.	8cc#\L	.	.	.	.	.
.	.	.	.	.	.	.	.	.	.	.	8dd\J	.	.	.	.	.
2G#X\	5	2f#/	.	.	2G#X\	.	.	.	2f#\	.	4ee\	.	.	.	.	.
.	.	.	.	.	.	.	.	.	.	.	4dd\	.	4d\	4f#\	.	.
=77	=77	=77	=77	=77	=77	=77	=77	=77	=77	=77	=77	=77	=77	=77	=77	=77
!LO:TX:a:i:t=pedal&colon;	!	!	!	!	!	!	!	!	!	!	!	!	!	!	!	!
1A\	.	4e/	.	1ryy	1A\	.	1A\	.	4e\	.	4cc#\	.	1A/	1e/	1ryy	1ryy
.	.	4f#/	.	.	.	.	.	.	4f#\	.	4dd\	.	.	.	.	.
.	.	4g/	.	.	.	.	.	.	4g\	.	4ee\	.	.	.	.	.
.	.	4e/	.	.	.	.	.	.	4e\	.	4cc#\	.	.	.	.	.
!	!	!	!	!	!	!	!LO:LB:g=original	!	!	!	!	!	!	!	!	!
=78	=78	=78	=78	=78	=78	=78	=78	=78	=78	=78	=78	=78	=78	=78	=78	=78
[1AA/	.	4f#/	.	1ryy	1A\	.	4A\	-men	4f#\	-men	1dd\	.	1d/	1f#/	1ryy	1ryy
.	.	4d/	.	.	.	.	4d\	a-	4d\	a-	.	.	.	.	.	.
.	.	4e/	.	.	.	.	4c#\	.	4e\	.	.	.	.	.	.	.
.	.	4f#/	.	.	.	.	4d\	.	4f#\	.	.	.	.	.	.	.
=79	=79	=79	=79	=79	=79	=79	=79	=79	=79	=79	=79	=79	=79	=79	=79	=79
1AA/_	.	4g/	.	1ryy	1A\	.	4e\	.	4g\	.	2cc#\	.	2A/	2e\	1ryy	1ryy
.	.	8a/L	.	.	.	.	8d\L	.	8a\L	.	.	.	.	.	.	.
.	.	8g/J	.	.	.	.	8e\J	.	8g\J	.	.	.	.	.	.	.
.	.	4f#/	.	.	.	.	4f#\	.	4f#\	.	4dd\	.	4d\	4f#\	.	.
.	.	4c#/	.	.	.	.	4g\	.	4c#\	.	4ee\	.	4e\	4g\	.	.
!	!	!	!	!	!	!	!	!	!LO:PB:g=original	!	!LO:LB:g=original	!	!	!	!	!
=80	=80	=80	=80	=80	=80	=80	=80	=80	=80	=80	=80	=80	=80	=80	=80	=80
1AA/_	.	2.d/	.	1ryy	1A\	.	2.f#\	.	2.d\	.	4ff#\	.	1d/	1f#/	1ryy	1ryy
.	.	.	.	.	.	.	.	.	.	.	4ee\	.	.	.	.	.
.	.	.	.	.	.	.	.	.	.	.	2dd\	-men	.	.	.	.
.	.	4f#/	.	.	.	.	4d\	.	4f#\	.	.	.	.	.	.	.
=81	=81	=81	=81	=81	=81	=81	=81	=81	=81	=81	=81	=81	=81	=81	=81	=81
1AA/_	.	4g/	.	1ryy	1A\	.	4e\	.	4g\	.	4r	.	2A/	2e\	1ryy	1ryy
.	.	8a/L	.	.	.	.	8d\L	.	8a\L	.	4cc#\	a-	.	.	.	.
.	.	8g/J	.	.	.	.	8e\J	.	8g\J	.	.	.	.	.	.	.
.	.	4f#/	.	.	.	.	4f#\	.	4f#\	.	4dd\	.	4d\	4f#\	.	.
.	.	4c#/	.	.	.	.	4g\	.	4c#\	.	4ee\	.	4e\	4g\	.	.
!	!	!LO:LB:g=original	!	!	!	!	!	!	!	!	!	!	!LO:LB:g=original	!	!	!
=82	=82	=82	=82	=82	=82	=82	=82	=82	=82	=82	=82	=82	=82	=82	=82	=82
1AA/_	.	4d/	.	1ryy	1A\	.	2.f#\	.	2.d\	.	4ff#\	.	1d/	1f#/	1ryy	1ryy
.	.	4e/	.	.	.	.	.	.	.	.	4ee\	.	.	.	.	.
.	.	4f#/	.	.	.	.	.	.	.	.	2dd\	-men	.	.	.	.
.	.	4d/	.	.	.	.	4d\	.	4f#\	.	.	.	.	.	.	.
=83	=83	=83	=83	=83	=83	=83	=83	=83	=83	=83	=83	=83	=83	=83	=83	=83
1AA/_	.	2c#/	.	1ryy	1A\	.	1e\	.	2c#\	-men	2ee\	a-	2A/	2e\	1ryy	1ryy
.	.	2a/	.	.	.	.	.	.	2a\	a-	2aa\	.	2r	2r	.	.
!	!	!	!	!	!LO:LB:g=original	!	!	!	!	!	!	!	!	!	!	!
=84	=84	=84	=84	=84	=84	=84	=84	=84	=84	=84	=84	=84	=84	=84	=84	=84
1AA/_	.	2.b\	.	1ryy	1A\	.	2f#\	.	2.b\	.	4aa\	.	1A/	1A/	1ryy	1ryy
.	.	.	.	.	.	.	.	.	.	.	8bb\L	.	.	.	.	.
.	.	.	.	.	.	.	.	.	.	.	8aa\J	.	.	.	.	.
.	.	.	.	.	.	.	2e\	.	.	.	[<2gg\	.	.	.	.	.
.	.	8cc#\L	.	.	.	.	.	.	8cc#\L	.	.	.	.	.	.	.
.	.	8b\J	.	.	.	.	.	.	8b\J	.	.	.	.	.	.	.
=85	=85	=85	=85	=85	=85	=85	=85	=85	=85	=85	=85	=85	=85	=85	=85	=85
1AA/_	.	2.a/	.	1ryy	1A\	.	2e\	.	2.a\	.	4gg\]	.	1A/	1A/	1ryy	1ryy
.	.	.	.	.	.	.	.	.	.	.	8aa\L	.	.	.	.	.
.	.	.	.	.	.	.	.	.	.	.	8gg\J	.	.	.	.	.
.	.	.	.	.	.	.	2d\	.	.	.	2ff#\	.	.	.	.	.
.	.	8b/L	.	.	.	.	.	.	8b\L	.	.	.	.	.	.	.
.	.	8a/J	.	.	.	.	.	.	8a\J	.	.	.	.	.	.	.
!	!	!	!	!	!	!	!LO:LB:g=original	!	!	!	!	!	!	!LO:LB:g=original	!	!
=86	=86	=86	=86	=86	=86	=86	=86	=86	=86	=86	=86	=86	=86	=86	=86	=86
1AA/_	.	2.g/	.	1ryy	1A\	.	2d\	.	2.g\	.	4ff#\	.	1A/	1A/	1ryy	1ryy
.	.	.	.	.	.	.	.	.	.	.	8gg\L	.	.	.	.	.
.	.	.	.	.	.	.	.	.	.	.	8ff#\J	.	.	.	.	.
.	.	.	.	.	.	.	2B\	.	.	.	4ee\	.	.	.	.	.
.	.	4f#/	.	.	.	.	.	.	4f#\	.	4dd\	.	.	.	.	.
!LO:LB:g=original	!	!	!	!	!	!	!	!	!	!	!LO:LB:g=original	!	!	!	!	!
=87	=87	=87	=87	=87	=87	=87	=87	=87	=87	=87	=87	=87	=87	=87	=87	=87
!LO:TX:t=P:problem:brak zakończenia ligatury	!	!	!	!	!	!	!	!	!	!	!	!	!	!	!	!
4AA/]	.	4e/	.	1ryy	4A\	.	4A\	.	4e\	.	4cc#\	.	4A/	4A/	1ryy	1ryy
4BB/	.	4d/	.	.	4B\	.	4E/	.	4d\	.	2dd\	.	2d\	4d\	.	.
4GG/	.	2e/	.	.	4G\	.	4B\	.	2e\	.	.	.	.	2e\	.	.
4AA/	.	.	.	.	4A\	.	4A\	.	.	.	4cc#\	.	4A/	.	.	.
!	!	!	!	!	!	!	!	!	!LO:LB:g=original	!	!	!	!	!	!	!
=88	=88	=88	=88	=88	=88	=88	=88	=88	=88	=88	=88	=88	=88	=88	=88	=88
!	!	!LO:TX:a:i:t=Solo&colon;	!	!	!	!	!	!	!	!	!	!	!	!	!	!
2DD/	.	4f#/	.	1ryy	2D\	-men	2A\	-men	2f#\	-men	2dd\	-men	2F#/	2d\	1ryy	1ryy
.	.	4d/	.	.	.	.	.	.	.	.	.	.	.	.	.	.
2r	.	4e/	.	.	2r	.	2r	.	2r	.	2r	.	2r	2r	.	.
.	.	4f#/	.	.	.	.	.	.	.	.	.	.	.	.	.	.
=89	=89	=89	=89	=89	=89	=89	=89	=89	=89	=89	=89	=89	=89	=89	=89	=89
00r	.	4g/	.	1ryy	00r	.	00r	.	00r	.	00r	.	00r	00r	1ryy	1ryy
.	.	8a/L	.	.	.	.	.	.	.	.	.	.	.	.	.	.
.	.	8g/J	.	.	.	.	.	.	.	.	.	.	.	.	.	.
.	.	4f#/	.	.	.	.	.	.	.	.	.	.	.	.	.	.
.	.	4c#/	.	.	.	.	.	.	.	.	.	.	.	.	.	.
=90	=90	=90	=90	=90	=90	=90	=90	=90	=90	=90	=90	=90	=90	=90	=90	=90
.	.	2.d/	.	1ryy	.	.	.	.	.	.	.	.	.	.	1ryy	1ryy
.	.	4f#/	.	.	.	.	.	.	.	.	.	.	.	.	.	.
=91	=91	=91	=91	=91	=91	=91	=91	=91	=91	=91	=91	=91	=91	=91	=91	=91
.	.	4g/	.	1ryy	.	.	.	.	.	.	.	.	.	.	1ryy	1ryy
.	.	8a/L	.	.	.	.	.	.	.	.	.	.	.	.	.	.
.	.	8g/J	.	.	.	.	.	.	.	.	.	.	.	.	.	.
.	.	4f#/	.	.	.	.	.	.	.	.	.	.	.	.	.	.
.	.	4c#/	.	.	.	.	.	.	.	.	.	.	.	.	.	.
=92	=92	=92	=92	=92	=92	=92	=92	=92	=92	=92	=92	=92	=92	=92	=92	=92
.	.	2.d/	.	1ryy	.	.	.	.	.	.	.	.	.	.	1ryy	1ryy
.	.	4f#/	.	.	.	.	.	.	.	.	.	.	.	.	.	.
=93	=93	=93	=93	=93	=93	=93	=93	=93	=93	=93	=93	=93	=93	=93	=93	=93
0r	.	4g/	.	1ryy	0r	.	0r	.	0r	.	0r	.	0r	0r	1ryy	1ryy
.	.	8a/L	.	.	.	.	.	.	.	.	.	.	.	.	.	.
.	.	8g/J	.	.	.	.	.	.	.	.	.	.	.	.	.	.
.	.	4f#/	.	.	.	.	.	.	.	.	.	.	.	.	.	.
.	.	4d/	.	.	.	.	.	.	.	.	.	.	.	.	.	.
=94	=94	=94	=94	=94	=94	=94	=94	=94	=94	=94	=94	=94	=94	=94	=94	=94
.	.	4g/	.	1ryy	.	.	.	.	.	.	.	.	.	.	1ryy	1ryy
.	.	4e/	.	.	.	.	.	.	.	.	.	.	.	.	.	.
.	.	4a/	.	.	.	.	.	.	.	.	.	.	.	.	.	.
.	.	4g/	.	.	.	.	.	.	.	.	.	.	.	.	.	.
=95	=95	=95	=95	=95	=95	=95	=95	=95	=95	=95	=95	=95	=95	=95	=95	=95
1r	.	2f#/	.	1ryy	1r	.	1r	.	1r	.	1r	.	1r	1r	1ryy	1ryy
!	!	!	!LO:DY:a:t=fz	!	!	!	!	!	!	!	!	!	!	!	!	!
.	.	8dd\L	f	.	.	.	.	.	.	.	.	.	.	.	.	.
.	.	8cc#\	.	.	.	.	.	.	.	.	.	.	.	.	.	.
.	.	8dd\	.	.	.	.	.	.	.	.	.	.	.	.	.	.
.	.	8ee\J	.	.	.	.	.	.	.	.	.	.	.	.	.	.
!	!	!	!	!	!LO:PB:g=original	!	!	!	!	!	!	!	!	!	!	!
=96	=96	=96	=96	=96	=96	=96	=96	=96	=96	=96	=96	=96	=96	=96	=96	=96
2r	.	4ff#\	.	1ryy	2r	.	2r	.	2r	.	2r	.	2r	2r	1ryy	1ryy
.	.	4dd\	.	.	.	.	.	.	.	.	.	.	.	.	.	.
2D\	.	4a/	.	.	2D\	a-	2A\	a-	2f#\	a-	2dd\	a-	2d\	2f#\	.	.
.	.	4dd\	.	.	.	.	.	.	.	.	.	.	.	.	.	.
=97	=97	=97	=97	=97	=97	=97	=97	=97	=97	=97	=97	=97	=97	=97	=97	=97
2A\	.	4ee\	.	1ryy	2A\	-men	2A\	-men	2e\	-men	2cc#\	-men	2A/	2e\	1ryy	1ryy
.	.	4cc#\	.	.	.	.	.	.	.	.	.	.	.	.	.	.
!	!	!LO:LB:g=original	!	!	!	!	!	!	!	!	!	!	!	!	!	!
2r	.	8cc#\L	.	.	2r	.	2r	.	2r	.	2r	.	2r	2r	.	.
.	.	8b\	.	.	.	.	.	.	.	.	.	.	.	.	.	.
.	.	8cc#\	.	.	.	.	.	.	.	.	.	.	.	.	.	.
.	.	8dd\J	.	.	.	.	.	.	.	.	.	.	.	.	.	.
=98	=98	=98	=98	=98	=98	=98	=98	=98	=98	=98	=98	=98	=98	=98	=98	=98
2r	.	4ee\	.	1ryy	2r	.	2r	.	2r	.	2r	.	2r	2r	1ryy	1ryy
.	.	4cc#\	.	.	.	.	.	.	.	.	.	.	.	.	.	.
*	*	*	*	*	*	*ij	*	*ij	*	*ij	*	*ij	*	*	*	*
2AA/	.	4gg\	.	.	2A\	a-	2A\	a-	2e\	a-	2cc#\	a-	2A/	2e\	.	.
.	.	4ee\	.	.	.	.	.	.	.	.	.	.	.	.	.	.
!	!	!	!	!	!	!	!	!	!	!	!	!	!LO:LB:g=original	!	!	!
=99	=99	=99	=99	=99	=99	=99	=99	=99	=99	=99	=99	=99	=99	=99	=99	=99
2D\	.	4dd\	.	1ryy	2D\	-men	2A\	-men	2f#\	-men	2dd\	-men	2d\	2f#\	1ryy	1ryy
*	*	*	*	*	*	*Xij	*	*Xij	*	*	*	*Xij	*	*	*	*
.	.	4f#/	.	.	.	.	.	.	.	.	.	.	.	.	.	.
2r	.	8dd\L	.	.	2r	.	2r	.	2r	.	2r	.	2r	2r	.	.
.	.	8cc#\	.	.	.	.	.	.	.	.	.	.	.	.	.	.
.	.	8dd\	.	.	.	.	.	.	.	.	.	.	.	.	.	.
.	.	8ee\J	.	.	.	.	.	.	.	.	.	.	.	.	.	.
=100	=100	=100	=100	=100	=100	=100	=100	=100	=100	=100	=100	=100	=100	=100	=100	=100
2r	.	4ff#\	.	1ryy	2r	.	2r	.	2r	.	2r	.	2r	2r	1ryy	1ryy
.	.	4dd\	.	.	.	.	.	.	.	.	.	.	.	.	.	.
2D\	.	4f#/	.	.	2D\	a-	2A\	a-	2f#\	a-	2dd\	a-	2d\	2f#\	.	.
.	.	4dd\	.	.	.	.	.	.	.	.	.	.	.	.	.	.
!	!	!	!	!	!	!	!LO:LB:g=original	!	!	!	!	!	!	!	!	!
=101	=101	=101	=101	=101	=101	=101	=101	=101	=101	=101	=101	=101	=101	=101	=101	=101
2A\	3_	4cc#\	.	1ryy	2A\	.	1A\	.	2e\	-men	1cc#\	.	1A/	1e/	1ryy	1ryy
*	*	*	*	*	*	*	*	*	*	*Xij	*	*	*	*	*	*
.	.	4ee\	.	.	.	.	.	.	.	.	.	.	.	.	.	.
2G\	.	4a/	.	.	2G\	.	.	.	2e\	a-	.	.	.	.	.	.
.	.	4cc#\	.	.	.	.	.	.	.	.	.	.	.	.	.	.
!LO:LB:g=original	!	!	!	!	!	!	!	!	!	!	!LO:LB:g=original	!	!	!	!	!
=102	=102	=102	=102	=102	=102	=102	=102	=102	=102	=102	=102	=102	=102	=102	=102	=102
2F#\	6	4dd\	.	1ryy	2F#\	.	2A\	-men	1f#\	.	1dd\	.	1d/	1f#/	1ryy	1ryy
.	.	4d/	.	.	.	.	.	.	.	.	.	.	.	.	.	.
2B\	.	4f#/	.	.	2B\	.	2B\	a-	.	.	.	.	.	.	.	.
.	.	4d/	.	.	.	.	.	.	.	.	.	.	.	.	.	.
!	!	!	!	!	!	!	!	!	!LO:LB:g=original	!	!	!	!	!LO:LB:g=original	!	!
=103	=103	=103	=103	=103	=103	=103	=103	=103	=103	=103	=103	=103	=103	=103	=103	=103
2G\	6 5	4e/	.	1ryy	2G\	.	2B\	.	1e\	.	2dd\	.	2d\	1e/	1ryy	1ryy
.	.	4dd\	.	.	.	.	.	.	.	.	.	.	.	.	.	.
2A\	.	4e/	.	.	2A\	.	2A\	.	.	.	2cc#\	.	2A/	.	.	.
.	.	4cc#\	.	.	.	.	.	.	.	.	.	.	.	.	.	.
!	!	!	!	!	!LO:LB:g=original	!	!	!	!	!	!	!	!	!	!	!
=104	=104	=104	=104	=104	=104	=104	=104	=104	=104	=104	=104	=104	=104	=104	=104	=104
!	!	!LO:TX:a:i:t=Solo	!	!	!	!	!	!	!	!	!	!	!	!	!	!
2D\	.	4dd\	.	1ryy	2D\	-men	2A\	-men	2f#\	-men	2dd\	-men	2F#/	2d\	1ryy	1ryy
.	.	4a/	.	.	.	.	.	.	.	.	.	.	.	.	.	.
2r	.	4g/	.	.	2r	.	2r	.	2r	.	2r	.	2r	2r	.	.
.	.	4f#/	.	.	.	.	.	.	.	.	.	.	.	.	.	.
!	!	!LO:LB:g=original	!	!	!	!	!	!	!	!	!	!	!	!	!	!
=105	=105	=105	=105	=105	=105	=105	=105	=105	=105	=105	=105	=105	=105	=105	=105	=105
00r	.	2.e/	.	1ryy	00r	.	00r	.	00r	.	00r	.	00r	00r	1ryy	1ryy
.	.	8a/L	.	.	.	.	.	.	.	.	.	.	.	.	.	.
.	.	8b/J	.	.	.	.	.	.	.	.	.	.	.	.	.	.
=106	=106	=106	=106	=106	=106	=106	=106	=106	=106	=106	=106	=106	=106	=106	=106	=106
.	.	4a/	.	1ryy	.	.	.	.	.	.	.	.	.	.	1ryy	1ryy
.	.	4g/	.	.	.	.	.	.	.	.	.	.	.	.	.	.
.	.	4f#/	.	.	.	.	.	.	.	.	.	.	.	.	.	.
.	.	4e/	.	.	.	.	.	.	.	.	.	.	.	.	.	.
=107	=107	=107	=107	=107	=107	=107	=107	=107	=107	=107	=107	=107	=107	=107	=107	=107
.	.	2.d/	.	1ryy	.	.	.	.	.	.	.	.	.	.	1ryy	1ryy
.	.	8g/L	.	.	.	.	.	.	.	.	.	.	.	.	.	.
.	.	8a/J	.	.	.	.	.	.	.	.	.	.	.	.	.	.
=108	=108	=108	=108	=108	=108	=108	=108	=108	=108	=108	=108	=108	=108	=108	=108	=108
.	.	4g/	.	1ryy	.	.	.	.	.	.	.	.	.	.	1ryy	1ryy
.	.	4f#/	.	.	.	.	.	.	.	.	.	.	.	.	.	.
.	.	4e/	.	.	.	.	.	.	.	.	.	.	.	.	.	.
.	.	4d/	.	.	.	.	.	.	.	.	.	.	.	.	.	.
=109	=109	=109	=109	=109	=109	=109	=109	=109	=109	=109	=109	=109	=109	=109	=109	=109
0r	.	2.c#/	.	1ryy	0r	.	0r	.	0r	.	0r	.	0r	0r	1ryy	1ryy
.	.	8f#/L	.	.	.	.	.	.	.	.	.	.	.	.	.	.
.	.	8g/J	.	.	.	.	.	.	.	.	.	.	.	.	.	.
=110	=110	=110	=110	=110	=110	=110	=110	=110	=110	=110	=110	=110	=110	=110	=110	=110
.	.	4a/	.	1ryy	.	.	.	.	.	.	.	.	.	.	1ryy	1ryy
.	.	4g/	.	.	.	.	.	.	.	.	.	.	.	.	.	.
.	.	4f#/	.	.	.	.	.	.	.	.	.	.	.	.	.	.
.	.	8e/L	.	.	.	.	.	.	.	.	.	.	.	.	.	.
.	.	8f#/J	.	.	.	.	.	.	.	.	.	.	.	.	.	.
=111	=111	=111	=111	=111	=111	=111	=111	=111	=111	=111	=111	=111	=111	=111	=111	=111
1r	.	4g/	.	1ryy	1r	.	1r	.	1r	.	1r	.	1r	1r	1ryy	1ryy
.	.	4e/	.	.	.	.	.	.	.	.	.	.	.	.	.	.
.	.	4a/	.	.	.	.	.	.	.	.	.	.	.	.	.	.
.	.	4g/	.	.	.	.	.	.	.	.	.	.	.	.	.	.
=112	=112	=112	=112	=112	=112	=112	=112	=112	=112	=112	=112	=112	=112	=112	=112	=112
!	!	!	!LO:DY:a:t=fz	!	!	!	!	!	!	!	!	!	!	!	!	!
2r	.	2f#/	f	1ryy	2r	.	2r	.	2r	.	2r	.	2r	2r	1ryy	1ryy
*	*	*	*	*	*	*	*	*ij	*	*	*	*	*	*	*	*
2A\	.	2cc#/ 2e/	.	.	2A\	a-	2A\	a-	2e\	a-	2cc#\	a-	2A/	2e\	.	.
=113	=113	=113	=113	=113	=113	=113	=113	=113	=113	=113	=113	=113	=113	=113	=113	=113
2D\	.	2dd/ 2f#/	.	1ryy	2D\	-men	2A\	-men	2f#\	-men	2dd\	-men	2d\	2f#\	1ryy	1ryy
2r	.	2r	.	.	2r	.	2r	.	2r	.	2r	.	2r	2r	.	.
==	==	==	==	==	==	==	==	==	==	==	==	==	==	==	==	==
*-	*-	*-	*-	*-	*-	*-	*-	*-	*-	*-	*-	*-	*-	*-	*-	*-
!!!system-decoration: [(g1)][(g2)][(g3)][(g4)]s11
!!!ENC: Andrzej Borzym
!!!END:2020-07-17
!!!EED: Andrzej Borzym
!!!EST: 2022-01-13
!!!RDF**kern: > = above
!!!RDF**kern: < = below
